svg/peacock-light.svg

<svg xmlns="http://www.w3.org/2000/svg" xml:space="preserve" viewBox="0 0 512 512"><path d="M421.7 357.4c-18 0-32.7 14.7-32.7 32.7s14.7 32.7 32.7 32.7 32.7-14.7 32.7-32.7-14.7-32.7-32.7-32.7m0-89.3c-18 0-32.7 14.7-32.7 32.7s14.7 32.7 32.7 32.7 32.7-14.7 32.7-32.7c-.4-18.4-14.7-32.7-32.7-32.7m0 178.5c-18 0-32.7 14.7-32.7 32.7s14.7 32.7 32.7 32.7 32.7-14.7 32.7-32.7-14.7-32.7-32.7-32.7m0-268.1c-18 0-32.7 14.7-32.7 32.7s14.7 32.7 32.7 32.7 32.7-14.7 32.7-32.7c-.4-18-14.7-32.7-32.7-32.7m0-89.2c-18 0-32.7 14.7-32.7 32.7s14.7 32.7 32.7 32.7 32.7-14.7 32.7-32.7c-.4-18.1-14.7-32.7-32.7-32.7m0-89.3c-18 0-32.7 14.7-32.7 32.7s14.7 32.7 32.7 32.7 32.7-14.7 32.7-32.7C454 14.7 439.7 0 421.7 0M192.9 20.2C114.4 20.2 50.6 84 50.6 162.5v329.2h67.5V309l24.8 26.2 99.2-39c56.5-22 93.2-73 93.2-133.6-.1-78.5-63.9-142.4-142.4-142.4m25.3 216.3-100.1 39V162.6c0-45.5 34-78 74.8-78s74.8 33 74.8 78c0 28.4-13.7 59.7-49.5 73.9" style="fill:#fff"/></svg>

<?xml version="1.0" encoding="utf-8"?>
<!-- Generator: Adobe Illustrator 28.2.0, SVG Export Plug-In . SVG Version: 6.00 Build 0)  -->
<svg version="1.1"
	 id="Layer_1" xmlns:rdf="http://www.w3.org/1999/02/22-rdf-syntax-ns#" xmlns:dc="http://purl.org/dc/elements/1.1/" xmlns:cc="http://creativecommons.org/ns#" xmlns:svg="http://www.w3.org/2000/svg" xmlns:sodipodi="http://sodipodi.sourceforge.net/DTD/sodipodi-0.dtd" xmlns:inkscape="http://www.inkscape.org/namespaces/inkscape"
	 xmlns="http://www.w3.org/2000/svg" xmlns:xlink="http://www.w3.org/1999/xlink" x="0px" y="0px" viewBox="0 0 512 512"
	 style="enable-background:new 0 0 512 512;" xml:space="preserve">
<style type="text/css">
	.st0{fill:#FFFFFF;}
</style>
<path class="st0" d="M421.7,357.4c-18,0-32.7,14.7-32.7,32.7s14.7,32.7,32.7,32.7s32.7-14.7,32.7-32.7
	C454.4,372.1,439.7,357.4,421.7,357.4z M421.7,268.1c-18,0-32.7,14.7-32.7,32.7s14.7,32.7,32.7,32.7s32.7-14.7,32.7-32.7
	C454,282.4,439.7,268.1,421.7,268.1z M421.7,446.6c-18,0-32.7,14.7-32.7,32.7s14.7,32.7,32.7,32.7s32.7-14.7,32.7-32.7
	C454.4,461.3,439.7,446.6,421.7,446.6z M421.7,178.5c-18,0-32.7,14.7-32.7,32.7s14.7,32.7,32.7,32.7s32.7-14.7,32.7-32.7
	C454,193.2,439.7,178.5,421.7,178.5z M421.7,89.3c-18,0-32.7,14.7-32.7,32.7s14.7,32.7,32.7,32.7s32.7-14.7,32.7-32.7
	C454,103.9,439.7,89.3,421.7,89.3L421.7,89.3z M421.7,0c-18,0-32.7,14.7-32.7,32.7s14.7,32.7,32.7,32.7s32.7-14.7,32.7-32.7
	C454,14.7,439.7,0,421.7,0z M192.9,20.2C114.4,20.2,50.6,84,50.6,162.5v329.2h67.5V309l24.8,26.2l99.2-39
	c56.5-22,93.2-73,93.2-133.6C335.2,84.1,271.4,20.2,192.9,20.2L192.9,20.2z M218.2,236.5l-100.1,39V162.6c0-45.5,34-78,74.8-78
	s74.8,33,74.8,78C267.7,191,254,222.3,218.2,236.5L218.2,236.5z"/>
</svg>
